X:552
T: "Liebesstolz"
N: Z1232
O: Europa, Mitteleuropa, Oesterreich
N: Die letzten 8 Takte werden auf die Silbe 'la' gesungen.
R: Liebes - Lied
M: 3/4
L: 1/8
K: C
 | G2G2A2 | G3FE2
G2G2A2 | G4
GG | A2F2F2 | F2ACA2
G2E2D2 | E4
GE | F2d2d2 | d4
FD | E2c2c2 | c4
GE | F2d2d2 | d4
cB | c2c2ed | c6

